X:0678
T:Mr. Hanny of Bargaly's Reel.
M:C|
L:1/8
Q:1/2=104
I: || ||
Z:Jack Campin * www.campin.me.uk * 2009
K:D
B|AFDA BGAF| BGAF      GEEB     |AFDA  BGAg|fdAc      dDD
B|AFDA BGAF| GBFA      BEE(F/G/)|FAd=c BGed|cA(gf/e/) fdd||
f|defg afdf|(ag/f/) df geef     |defg  afdA|Bgfe      fdd
f|defg afdf| ag/f/  df geeg     |fdaf  gebg|fdAc      dDD|]

